X: 24868
T: Magic Foot
R: barndance
M: 4/4
K: Gmajor
G2Bd ddBd|ddBd cAFD|GGBd ddBd|cAFD GGDG-|
GDBd ddBd|ddBd cAFD|GGBd ddBd|cAFD GBdd|
|:BGdG BdBG|EGdG FAdd|BGdG BdBG|1 AddB GBdd:|2 AddB G2gb|
|:addd Addd-|dddd Adgb|addd Addd-|1 dBAG G2gb:|2 dBde dBAG|
GBdd ddBG|FGFD A,A,DF|GBdG FGFD|A,A,DF GGDG-|
GBdd ddBG|FGFD A,A,DF|GBdG FGFD|A,A,DF Gz z2||

